X: 11896
T: Emma's Fancy
R: hornpipe
M: 4/4
K: Aminor
|:E|ABcd eAcA|BE^GB ABcd|eGgG fGeG|(3ded ^cd BA^GB|
EAcd eAcA|BE^GB A2 (3Bcd|eGfg fedc|BE^GB A3:|
K:Amaj
|:B|cBcd eaag|abag fd (3dcd|ecBA FdcA|B2e2- efed|
cBcd eaag|a2ag fd (3dcd|ecBA FdcA|BEFG A3:|

